X:452
T:Molly My Dear
N:"Tenderly"
N:Irish title: maire a run
B:O'Neill's 452
Z:Transcribed by henrik.norbeck@mailbox.swipnet.se
M:3/8
L:1/8
K:G
B/c/|dde|c2 A|B2 G|BAGG|G2 B/c/|
dde|c2 A|B2 G|BAGG|G2 Hx||
d/c/|BGB|def|gag|fdB|c2 d/c/|
BGB|def|gag|fdB|Hc2 "D.C."||
